svg/fluentui-system-icons/ic_fluent_add_24_regular.svg

<svg width="24" height="24" viewBox="0 0 24 24" fill="none" xmlns="http://www.w3.org/2000/svg">
<path d="M11.7498 3C12.1295 3 12.4434 3.28201 12.4931 3.64808L12.5 3.74985L12.5012 11H19.7543C20.1685 11 20.5043 11.3358 20.5043 11.75C20.5043 12.1297 20.2221 12.4435 19.8561 12.4932L19.7543 12.5H12.5012L12.5032 19.7491C12.5033 20.1633 12.1676 20.4993 11.7534 20.4993C11.3737 20.4993 11.0598 20.2173 11.0101 19.8512L11.0032 19.7494L11.0012 12.5H3.7522C3.33798 12.5 3.0022 12.1642 3.0022 11.75C3.0022 11.3703 3.28435 11.0565 3.65043 11.0068L3.7522 11H11.0012L11 3.75015C10.9999 3.33594 11.3356 3 11.7498 3Z" fill="#212121"/>
</svg>

<svg xmlns="http://www.w3.org/2000/svg" width="24" height="24"><path d="M11.75 3a.75.75 0 0 1 .743.648l.007.102.001 7.25h7.253a.75.75 0 0 1 .102 1.493l-.102.007h-7.253l.002 7.25a.75.75 0 0 1-1.493.101l-.007-.102-.002-7.249H3.752a.75.75 0 0 1-.102-1.493L3.752 11h7.25L11 3.75a.75.75 0 0 1 .75-.75Z"/></svg>
